src/static/logos/codrops.svg

<svg width="256" height="256" xmlns="http://www.w3.org/2000/svg" preserveAspectRatio="xMidYMid"><path d="M256 128c0 70.692-57.308 128-128 128C57.307 256 0 198.692 0 128 0 57.307 57.307 0 128 0c70.692 0 128 57.307 128 128" fill="#237DAC"/><path d="M129.283 60.731s39.839 64.87 39.839 88.5c0 18.839-8.81 41.505-39.839 41.505-31.029 0-39.854-22.679-39.854-41.517 0-22.818 39.854-88.488 39.854-88.488" fill="#FFF"/><path d="M100.532 82.518s25.074 40.828 25.074 55.701c0 11.857-5.545 26.123-25.074 26.123-19.53 0-25.084-14.274-25.084-26.131 0-14.361 25.084-55.693 25.084-55.693" fill="#61AAD4"/></svg>

<?xml version="1.0" encoding="UTF-8" standalone="no"?>
<svg width="256px" height="256px" viewBox="0 0 256 256" version="1.1" xmlns="http://www.w3.org/2000/svg" xmlns:xlink="http://www.w3.org/1999/xlink" preserveAspectRatio="xMidYMid">
	<g>
		<path d="M256,128 C256,198.692 198.692,256 128,256 C57.307,256 0,198.692 0,128 C0,57.307 57.307,0 128,0 C198.692,0 256,57.307 256,128" fill="#237DAC"></path>
		<path d="M129.283,60.731 C129.283,60.731 169.122,125.601 169.122,149.231 C169.122,168.07 160.312,190.736 129.283,190.736 C98.254,190.736 89.429,168.057 89.429,149.219 C89.429,126.401 129.283,60.731 129.283,60.731" fill="#FFFFFF"></path>
		<path d="M100.532,82.518 C100.532,82.518 125.606,123.346 125.606,138.219 C125.606,150.076 120.061,164.342 100.532,164.342 C81.002,164.342 75.448,150.068 75.448,138.211 C75.448,123.85 100.532,82.518 100.532,82.518" fill="#61AAD4"></path>
	</g>
</svg>
